X: 3724
T: Bimíd Ag Ól
R: jig
M: 6/8
K: Gmajor
DGG ABB|cBc d3|DGA B2d|cAG AGF|
DGG ABB|cBc def|gbg afd|1 cAF G3:|2 cAF G2||
|:D|GBd ~g3|gfd ~f3|def .g2g|gfd cAF|
F.B/.c/d ~g3|gfd .f2g|a.bg .afd|1 cAF G2:|2 cAF G3||

